X: 1
T: String Quartet in E\b Major opus 1 no 0 mvt 5
C: Franz Joseph Haydn
%%abc-version 2.0
%%abcx-abcm2ps-target-version 5.9.1 (29 Sep 2008)
%%abc-creator hum2abc beta
%%abcx-conversion-date 2021/02/14 14:38:28
%%abc-copyright Copyright (c) 1994, 2000 Center for Computer Assisted Research in the Humanities
%%abc-edited-by Frances Bennion
%%abcx-initial-encoding-date 1997/04/15
%%gracespace 0 6 6
%%humdrum-veritas 1960452876
%%humdrum-veritas-data 680960288
%%linebreak <none>
%%barnumbers 0
L: 1/8
M: 2/4
N: Derived from op01n0-05.krn
Q: "Presto"
%%staves [1 2 3 4]
V: 1
V: 2
V: 3 clef=alto
V: 4 clef=bass
K: Eb
[V:1][G,2E2] zB [I:setbarnb2] |
[V:2]z[EG,] [G,2E2] |
[V:3]zE E2 |
[V:4]zE, E,2 |
[V:1]A/G/F/E/ D/E/F/G/ |
[V:2]z4 |
[V:3]z4 |
[V:4]z4 |
[V:1]A2 zc |
[V:2]z[FB,] [B,2F2] |
[V:3]zB, B,2 |
[V:4]zB,, B,,2 |
[V:1]B/A/G/F/ E/D/E/F/ |
[V:2]z4 |
[V:3]z4 |
[V:4]z4 |
[V:1]G2 zB, |
[V:2]zE EG, |
[V:3]zG, G,G, |
[V:4]zE, E,G,, |
[V:1]C/B,/A,/B,/ C/D/E/F/ |
[V:2]A,2 z2 |
[V:3]A,2 z2 |
[V:4]A,,2 z2 |
[V:1]G/A/B/c/ d/e/d/e/ |
[V:2][G,2E2] z2 |
[V:3]B,2 z2 |
[V:4]G,,2 z2 |
[V:1]A,z B,z |
[V:2]A,z B,z |
[V:3]A,z B,z |
[V:4]A,,z B,,z |
[V:1]E2 zb/a/ |
[V:2]E2 z2 |
[V:3]E2 z2 |
[V:4]E,2 z2 |
[V:1]g/e/d/c/ B/A/G/F/ |
[V:2]G4 |
[V:3]E4- |
[V:4]E,2 G,B, |
[V:1]E2 zb/g/ |
[V:2]G/B/G/B/ E/B/E/B/ |
[V:3]E4 |
[V:4]EB, G,E, |
[V:1]f/d/c/B/ =A/G/F/E/ |
[V:2]F4 |
[V:3]D4- |
[V:4]B,,2 D,F, |
[V:1]D2 zb/f/ |
[V:2]D/B/D/B/ F/B/F/B/ |
[V:3]D4 |
[V:4]B,F, D,B,, |
[V:1]e/c/=A/F/ d/B/A/B/ |
[V:2]=A2 B2 |
[V:3]C2 B,2 |
[V:4]F,2 F,2 |
[V:1]e/c/=A/F/ d/B/A/B/ |
[V:2]c2 d2 |
[V:3]=A,2 B,2 |
[V:4]F,2 F,2 |
[V:1]e/c/=A/F/ d/B/F/D/ |
[V:2]ec dB |
[V:3]F,4 |
[V:4]F,F, F,F, |
[V:1]cF zf/b/ |
[V:2]=AF z2 |
[V:3]F,F z2 |
[V:4]F,F,, z2 |
[V:1]b/=a/c'/b/ d'/b/a/b/ |
[V:2]z4 |
[V:3]z4 |
[V:4]z4 |
[V:1]e2 df/b/ |
[V:2]=A2 Bz |
[V:3]c2 Bz |
[V:4]F,2 B,z |
[V:1]b/=a/c'/b/ d'/b/a/b/ |
[V:2]z4 |
[V:3]z4 |
[V:4]z4 |
[V:1]e2 df |
[V:2]=A2 BB- |
[V:3]c2 BD |
[V:4]F,2 B,B,, |
[V:1]g/e/d/c/ f/d/c/B/ |
[V:2]Bc- cB |
[V:3]Ee dD |
[V:4]E,E DD, |
[V:1]e/d/c/B/ =A/G/F/E/ |
[V:2]Bc/d/ eC |
[V:3]Cc F=A |
[V:4]C,C F,=A, |
[V:1]D/F/B/D/ EF |
[V:2]DD EF |
[V:3]BD EF |
[V:4]B,D, E,F, |
[V:1]B,2 z2 |
[V:2]B,2 z2 |
[V:3]B,B B,2 |
[V:4]B,,B, B,,2 |
[V:1]z[BD] [B2D2] |
[V:2][B2D2] zb |
[V:3][B2D2] z2 |
[V:4]B,,B,, B,,B,, |
[V:1]d4 |
[V:2]a/g/f/e/ d/c/B/A/ |
[V:3]z3 B, |
[V:4]B,,B,, B,,B,, |
[V:1]e2 zB, |
[V:2]G2 z2 |
[V:3]E/F/G/A/ B/c/d/e/ |
[V:4]B,,B,, B,,B,, |
[V:1]D4 |
[V:2]A/G/F/E/ D/C/B,/A,/ |
[V:3]dz2 B, |
[V:4]B,,B,, B,,B,, |
[V:1]E2 zc |
[V:2]G,2 z2 |
[V:3]E,/F,/G,/A,/ B,/C/D/E/ |
[V:4]B,,B,, B,,B,, |
[V:1]a4 |
[V:2]F4 |
[V:3]Dz2 D |
[V:4]B,,/C,/D,/E,/ F,/G,/A,/B,/ |
[V:1]g2 ze |
[V:2]G/A/B/c/ d/e/f/g/ |
[V:3]E/F/G/A/ B/c/d/e/ |
[V:4]E,E, E,E, |
[V:1]_d'/c'/b/a/ g/f/e/_d/ |
[V:2]e2 z2 |
[V:3]B/A/G/F/ E/_D/C/B,/ |
[V:4]G,,G,, G,,G,, |
[V:1]c2 z2 |
[V:2]A,/B,/C/_D/ E/F/G/A/ |
[V:3]A,2 z2 |
[V:4]A,,A,, A,,A,, |
[V:1]E/A/c/e/ E/A/c/e/ |
[V:2]A,2 z2 |
[V:3]A,c cA, |
[V:4]A,A, A,A, |
[V:1]E/G/B/e/ E/G/B/e/ |
[V:2][B2E2G,2] z2 |
[V:3]G,B BG |
[V:4]G,G, G,G, |
[V:1]A/B/G/B/ F/B/E/B/ |
[V:2]Bc de |
[V:3]FE DC |
[V:4]F,E, D,C, |
[V:1]D/B/E/B/ F/B/G/B/ |
[V:2]B2 z2 |
[V:3]B,2 z2 |
[V:4]B,,2 z2 |
[V:1]A/B/G/B/ F/B/E/B/ |
[V:2]Bc de |
[V:3]FE DC |
[V:4]F,E, D,C, |
[V:1]D/B/E/B/ F/B/G/B/ |
[V:2]B2 z2 |
[V:3]B,2 z2 |
[V:4]B,,2 z2 |
[V:1]A/B/G/B/ F/B/E/B/ |
[V:2]Bc de |
[V:3]FE DC |
[V:4]F,E, D,C, |
[V:1]B,2 z2 |
[V:2]B,2 z2 |
[V:3]B,2 z2 |
[V:4]B,,2 z2 |
[V:1][G,2E2] zB |
[V:2]z[EG,] [G,2E2] |
[V:3]zE E2 |
[V:4]zE, E,2 |
[V:1]A/G/F/E/ D/E/F/G/ |
[V:2]z4 |
[V:3]z4 |
[V:4]z4 |
[V:1]A2 zc |
[V:2]z[FB,] [B,2F2] |
[V:3]zB, B,2 |
[V:4]zB,, B,,2 |
[V:1]B/A/G/F/ E/D/E/F/ |
[V:2]z4 |
[V:3]z4 |
[V:4]z4 |
[V:1]G2 zB, |
[V:2]zE EG, |
[V:3]zG, G,G, |
[V:4]zE, E,G,, |
[V:1]C/B,/A,/B,/ C/D/E/F/ |
[V:2]A,2 z2 |
[V:3]A,2 z2 |
[V:4]A,,2 z2 |
[V:1]G/A/B/c/ d/e/d/e/ |
[V:2]B,2 z2 |
[V:3]G,2 z2 |
[V:4]E,2 z2 |
[V:1]Az Gz |
[V:2]Fz Ez |
[V:3]B,z B,z |
[V:4]B,,z B,,z |
[V:1]F2 zb/a/ |
[V:2]D2 z2 |
[V:3]B,2 z2 |
[V:4]B,,2 z2 |
[V:1]g/f/=e/_d/ c/B/A/G/ |
[V:2]z4 |
[V:3]z4 |
[V:4]z4 |
[V:1]F2 za/g/ |
[V:2]z[FA,] [A,2F2] |
[V:3]zA, A,2 |
[V:4]zF, F,2 |
[V:1]f/e/d/c/ B/A/G/F/ |
[V:2]z4 |
[V:3]z4 |
[V:4]z4 |
[V:1]E2 zb/g/ |
[V:2]z[G,E] [G,E][G,E] |
[V:3]zG, G,G |
[V:4]zE, E,E, |
[V:1]a/f/d/B/ g/b/g/b/ |
[V:2]D2 E2 |
[V:3]F2 E2 |
[V:4]B,,2 B,,2 |
[V:1]a/f/d/B/ g/b/g/b/ |
[V:2]F2 G2 |
[V:3]D2 E2 |
[V:4]B,,2 B,,2 |
[V:1]a/f/d/B/ e/B/G/E/ |
[V:2]AF GE |
[V:3]B,4 |
[V:4]B,,B,, B,,B,, |
[V:1]FB, zB/e/ |
[V:2]DB, z2 |
[V:3]B,2 z2 |
[V:4]B,,B, z2 |
[V:1]e/d/f/e/ g/e/d/e/ |
[V:2]z4 |
[V:3]z4 |
[V:4]z4 |
[V:1]A2 GB/e/ |
[V:2]F2 Ez |
[V:3]D2 Ez |
[V:4]B,,2 E,z |
[V:1]e/d/f/e/ g/e/d/e/ |
[V:2]z4 |
[V:3]z4 |
[V:4]z4 |
[V:1]A2 Gb |
[V:2]F2 EE- |
[V:3]D2 EG, |
[V:4]B,,2 E,G,, |
[V:1]c'/a/g/f/ b/g/f/e/ |
[V:2]EF- FE |
[V:3]A,A GG |
[V:4]A,,A, G,G, |
[V:1]a/g/f/e/ d/c/B/A/ |
[V:2]FF/G/ AF |
[V:3]FF B,D |
[V:4]F,F, B,,D, |
[V:1]G/B/e/G/ AB |
[V:2]GG AB |
[V:3]EG AB |
[V:4]E,G, A,B, |
[V:1]E2 z[GB,] |
[V:2]E2 z2 |
[V:3]EB, E,z |
[V:4]E,B,, E,,2 |
[V:1][AB,]z [AB,]z |
[V:2]zd d2 |
[V:3]zF F2 |
[V:4]zB, B,2 |
[V:1][B,2G2] z[GB,] |
[V:2]ze e2 |
[V:3]zG G2 |
[V:4]zE, E,2 |
[V:1][A,2F2] z[A,D] |
[V:2]zD D2 |
[V:3]zB, B,2 |
[V:4]zB,, B,,2 |
[V:1][G,2E2] [B2g2E2] |
[V:2]zE GB |
[V:3]zE B,G, |
[V:4]zE, E,E, |
[V:1][B2g2E2] [B2g2E2] |
[V:2]eB GE |
[V:3]E,G, B,E |
[V:4]E,E,, E,,E,, |
[V:1][g2E2B2] z2 |]
[V:2][B2E2G,2] z2 |]
[V:3]E,2 z2 |]
[V:4]E,2 z2 |]

